X:32
T:Miss Gunn's Dance
S:John Moore's Book 2
Z:Transcribed by Taz Tarry 04/2021
%%VWML: Moore1-4494-p27-1
F:http://www.vwml.org/record/Moore2/4494/p27
N:There is an extra quaver beat in bar 6 of the B part in the ms.
M:6/8
L:1/8
K:G
d|ded .g2 B|(Bc)B .d2 G|GFG A2 d|c3 {dc}B2 d|
(ded) g2 f|e2 a a g2|{g}f2 (d {f}e2)^c|d2 d2:|
d|(dB)c d2 g|g2 d d2 c|(cA)B c2 A|B2 G G2 d|
(dB)c d2 g|e2 c'2 !fermata!a2 g|(fe)f def|g3 g2:|

